X: 41582
T: Up Against The Flatirons
R: jig
M: 6/8
K: Dmixolydian
|:Add cBc|ABc dcB|AdB c2A|GcA GEG|
Add cBc|ABc AB^c|dAF GAB|1 cAF GFG:|2 cAF GED||
|:EGG EAA|EFG GED|EFG AB^c|dAF GED|
EGG EAA|E/F/GE D2d|d^cA =cAG|EAA A3:|

